X:53
T:53 Andrew Mack
C:Aylmore MS
I:abc2nwc
M:6/8
L:1/8
K:D
V:1 bracket=3
A|de/2f/2d B2d|AFA A2B|ABA d2e|f2a gfe|
de/2f/2d B2d|ABA A2d|B2g fge|d3d2:|
A|def a2f|b2g afd|def a2f|g2e bge|
def a2f|b2g afd|fdB GBd|f3gfe|
dBB B2d|AFA A2A|ABA d2e|f3gfe|
dBB B2d|AFA A2B|B2g fge|d3d2:|
V:2
D|FAF G2A|F2F F2A|F2F F2A|d2f edc|
F2F G2A|F2F F2F|G2e d2A|F3F2:|
D|FAd f2d|g2e fdB|FAd f2d|e2c gec|
FAd f2d|g2e fdB|F2G G2A|d3edA|
G2G G2A|F2F F2G|F2F F2G|d3edA|
G2G G2A|F2F F2F|G2e d2A|F3F2:|
V:3 clef=bass
K:G
z|d2d g2g|a3A3|d2d d2e|fda gfe|
d2d g2g|a3A3|d2g a2A|dAF D2:|
d|d6|d6|d6|e6|
d6|d6|d2d d2d|fda gfe|
d2d g2g|a2a A3|A2a d2e|fda gfe|
d2d g2g|a3A3|d2g a2A|dAF D2:|

